X: 21382
T: Lona's Vale
%R: air, march
B: James Oswald "The Caledonian Pocket Companion" v.2 p.138 #2
Z: 2018 John Chambers <jc:trillian.mit.edu>
N: Dot added to final note, to fix the rhythm of repeats.
M: 2/4
L: 1/8
K: G
"_Slow"g |\
(dB)(AG) | A2 G>A | B2(ge) | (dB)(AG) |\
(ge)(dB) | (B2 A)g | (dB)(TAG) | A2 GA |\
B2 (ge) | (dg)(dB) |
{d}c2 (BA) | G3 :: d |\
d2 (ef) | (gf)(ed) | Te2 (dB) | d2 (ef) |\
(gf)(ed) | e3d | d2 (ef) | (gf)(ed) |
B2 (A/B/d) | e2 (ge) | (ge) (dB) | (B2 A)g |\
(dB) (TAG) | A2 G>A | B2 (ge) | (dg)(dB) |\
Tc2 (BA) | G3 :|

%%sep 1 1 500
%%sep 1 1 500
%%text Vol XI Finis
%%text Vol XII


